X: 21108
T: Kansas City
R: hornpipe
M: 4/4
K: Dmajor
AG|:F2 F2 FEFA|FE D2 D2 FA|AB B2 AF F2|FE D2 E2 AG|
F2 F2 FEFA|FE D2 D2 FA|df f2 a3f|1 gf d2 d2 AG:|2 gfd2 d2dA||
|:def2 a2fa|abb2 affa|eff2 affa|fed2 e2ag|
efaf gefd|edB2 BAAF|ABde faba|1 fed2 d2dA:|2 fed2 d2BA||

